static/images/mobile/copyright/wikipedia-wordmark-mk.svg

<?xml version="1.0" encoding="UTF-8"?>
<svg width="120px" height="19px" viewBox="0 0 120 19" version="1.1" xmlns="http://www.w3.org/2000/svg" xmlns:xlink="http://www.w3.org/1999/xlink">
    <title>mk-wordmark</title>
    <g id="Page-1" stroke="none" stroke-width="1" fill="none" fill-rule="evenodd">
        <path d="M6.38759177,0.27532255 C10.9840782,0.27532255 11.7002497,2.45595032 11.7002497,4.13441171 C11.7002497,5.49547468 10.5917172,6.78153283 9.35239767,7.41815906 L9.35239767,7.46846717 C11.5027163,8.09594647 13.1587502,9.47255921 13.1587502,11.8782014 C13.1587502,14.0313884 11.8490763,16.5403909 6.93238726,16.5403909 C4.73336177,16.5403909 4.38700173,16.4891681 3.32447013,16.4891681 C2.06530706,16.4891681 1.32207613,16.5129501 0.111619936,16.5403909 C-0.0372066453,16.3903813 -0.0372066453,15.8635182 0.111619936,15.7135086 C1.84071422,15.6385038 2.26103656,15.5131908 2.26103656,13.434094 L2.26103656,3.38527826 C2.26103656,1.3061814 1.84071422,1.18086848 0.111619936,1.10586366 C-0.0372066453,0.955854034 -0.0372066453,0.430820335 0.111619936,0.278981321 C1.34733155,0.303678028 2.06260112,0.330204121 3.29921471,0.330204121 C4.36174631,0.32654535 5.52259364,0.27532255 6.38759177,0.27532255 Z M4.36174631,7.31845754 L6.19005831,7.31845754 C8.24115919,7.31845754 9.69965969,6.56658001 9.69965969,4.43900443 C9.69965969,1.8824379 7.89570113,1.13056037 6.51296689,1.13056037 C4.36264829,1.13056037 4.36264829,1.38027152 4.36264829,2.20898325 L4.36174631,7.31845754 L4.36174631,7.31845754 Z M4.36174631,14.0323031 C4.36174631,14.8591854 4.68285093,15.7116792 6.41194521,15.7116792 C10.1677869,15.7116792 10.860507,14.1841421 10.860507,12.3547564 C10.860507,10.1000385 9.45071341,8.16912189 6.06738913,8.16912189 L4.36174631,8.16912189 L4.36174631,14.0323031 Z M25.9334828,15.9376083 C26.0336025,16.0418833 26.0336025,16.4169074 25.9334828,16.5248411 C25.0928381,16.5056326 24.6057693,16.4891681 23.7660266,16.4891681 C22.9091463,16.4891681 22.4049398,16.5083767 21.5814328,16.5248411 C21.4813131,16.4187368 21.4813131,16.0437127 21.5814328,15.9376083 C22.7576137,15.8818121 23.0435412,15.7958309 23.0435412,14.3176873 L23.0435412,7.98343925 C22.9172641,8.0282592 22.832478,8.10966686 22.7503979,8.21485654 L18.1611273,14.2637204 C17.9635939,14.529896 17.7967277,14.6725881 17.6803724,15.0942615 C17.7994336,15.8305893 18.174657,15.8946178 19.0946759,15.9376083 C19.1947956,16.042798 19.1947956,16.4169074 19.0946759,16.5248411 C18.2540312,16.5056326 17.7660604,16.4891681 16.9263177,16.4891681 C16.0685354,16.4891681 15.565231,16.5083767 14.7417239,16.5248411 C14.6407022,16.4187368 14.6407022,16.0455421 14.7417239,15.9376083 C15.9179049,15.8827267 16.2038323,15.7958309 16.2038323,14.3176873 L16.2038323,7.1821683 C16.2038323,5.70676873 15.9179049,5.61529944 14.7417239,5.56224726 C14.6407022,5.45705758 14.6407022,5.08203351 14.7417239,4.97684383 C15.5823686,4.99422299 16.0685354,5.01068746 16.9082781,5.01068746 C17.7660604,5.01068746 18.2702668,4.99147891 19.0928719,4.97684383 C19.1929916,5.08111881 19.1929916,5.4543135 19.0928719,5.56224726 C17.9166909,5.61804352 17.6307635,5.70585403 17.6307635,7.1821683 L17.6307635,13.5164163 C17.7083337,13.5109282 17.8048455,13.4505584 17.9284167,13.3206721 L22.5456486,7.23613518 C22.7359662,6.98459465 22.8929106,6.66079338 22.9894224,6.37357982 C22.8640473,5.66835163 22.486118,5.60340843 21.5796288,5.56407664 C21.4795091,5.45705758 21.4795091,5.08203351 21.5796288,4.97592914 C22.4202735,4.99422299 22.9073423,5.01160216 23.747085,5.01160216 C24.6039653,5.01160216 25.1090737,4.99239361 25.9316788,4.97592914 C26.0317985,5.08111881 26.0317985,5.4543135 25.9316788,5.56407664 C24.7545959,5.61804352 24.4695704,5.70493934 24.4695704,7.18399769 L24.4695704,14.318602 C24.4713744,15.7958309 24.7563998,15.8854708 25.9334828,15.9376083 Z M27.229627,16.1516464 C27.229627,16.0620065 27.2792359,16.0098691 27.3468843,16.0098691 L27.8005799,15.9760254 C28.5059277,15.9183998 28.708873,15.7253996 28.708873,15.2287214 L28.708873,6.27845176 C28.708873,5.74427113 28.4581228,5.58511458 27.8005799,5.5311477 L27.3640219,5.49730406 C27.2972755,5.49730406 27.230529,5.4415078 27.230529,5.35552667 L27.230529,5.01709031 L27.2639022,4.98324668 C28.1045469,5.00154054 28.6087533,5.01709031 29.449398,5.01709031 C30.2891407,5.01709031 30.7771115,4.99879646 31.6015206,4.98324668 L31.6348938,5.01709031 L31.6348938,5.35552667 C31.6348938,5.44516657 31.583481,5.49730406 31.4995969,5.49730406 L31.0639409,5.5311477 C30.3919664,5.58877335 30.1403142,5.78085885 30.1403142,6.27845176 L30.1403142,9.97838436 C30.7446403,9.97838436 31.5004989,9.9610052 31.9036836,9.71220874 C32.8958609,9.14326979 33.1303755,8.00356249 33.281006,7.00837666 C33.4505781,5.90617177 33.9205093,4.90824186 35.2473208,4.90824186 C36.1384764,4.90824186 36.4397374,5.42321394 36.4397374,5.83482573 C36.4397374,6.3497978 36.0536903,6.54554208 35.7019184,6.54554208 C35.4818355,6.54554208 35.2473208,6.45590218 35.0804547,6.27845176 C34.8955489,6.08270749 34.760252,5.9921529 34.542875,5.9921529 C34.0368646,5.9921529 33.9214113,6.58212979 33.8366252,7.09618718 C33.6517195,8.20022145 33.2990456,9.72958791 32.0218429,10.2280955 L32.0218429,10.3177354 C33.1808863,10.3177354 33.8366252,11.0824186 34.2912228,12.329145 C35.1661427,14.7292991 36.0212191,15.9394377 36.6093096,15.9924899 L36.8771974,16.0116984 C36.9619835,16.0116984 37.0115923,16.06658 37.0115923,16.1525611 L37.0115923,16.4909975 L36.9944547,16.5266705 L35.6658392,16.507462 C34.3552633,16.4882534 33.7509372,15.0466975 33.0275498,13.0919988 C32.3700069,11.3129212 32.0543142,10.7247737 30.1376082,10.7247737 L30.1376082,15.2278067 C30.1376082,15.7601579 30.3892604,15.9193145 31.062137,15.9751107 L31.4986949,16.0089544 C31.5654414,16.0089544 31.6321879,16.0638359 31.6321879,16.1498171 L31.6321879,16.4882534 L31.5988146,16.5239264 C30.7915432,16.4882534 30.3035724,16.4882534 29.4638297,16.4882534 C28.624989,16.4882534 28.0865073,16.4882534 27.2630002,16.5239264 L27.228725,16.4882534 L27.229627,16.1516464 L27.229627,16.1516464 Z M49.5797716,15.9376083 C49.6807933,16.0418833 49.6807933,16.4169074 49.5797716,16.5248411 C48.7391269,16.5056326 48.2529601,16.4891681 47.4132174,16.4891681 C46.5563371,16.4891681 46.0512287,16.5083767 45.2286236,16.5248411 C45.1285039,16.4187368 45.1285039,16.0437127 45.2286236,15.9376083 C46.4057065,15.8818121 46.690732,15.7958309 46.690732,14.3176873 L46.690732,7.98343925 C46.5635529,8.0282592 46.4796688,8.10966686 46.3966867,8.21485654 L41.8074161,14.2637204 C41.6107847,14.529896 41.4430165,14.6725881 41.3266612,15.0942615 C41.4466244,15.8305893 41.8218478,15.8946178 42.7409647,15.9376083 C42.8410844,16.042798 42.8410844,16.4169074 42.7409647,16.5248411 C41.902124,16.5056326 41.4132512,16.4891681 40.5735085,16.4891681 C39.7166282,16.4891681 39.2124218,16.5083767 38.3898167,16.5248411 C38.288795,16.4187368 38.288795,16.0455421 38.3898167,15.9376083 C39.5659976,15.8827267 39.8510231,15.7958309 39.8510231,14.3176873 L39.8510231,7.1821683 C39.8510231,5.70676873 39.5659976,5.61529944 38.3898167,5.56224726 C38.288795,5.45705758 38.288795,5.08203351 38.3898167,4.97684383 C39.2286574,4.99422299 39.7166282,5.01068746 40.5563709,5.01068746 C41.4132512,5.01068746 41.9183596,4.99147891 42.7409647,4.97684383 C42.8410844,5.08111881 42.8410844,5.4543135 42.7409647,5.56224726 C41.5638817,5.61804352 41.2788563,5.70585403 41.2788563,7.1821683 L41.2788563,13.5164163 C41.3564265,13.5109282 41.4538403,13.4505584 41.5765095,13.3206721 L46.1937414,7.23613518 C46.384059,6.98459465 46.5410034,6.66079338 46.6375152,6.37357982 C46.5121401,5.66835163 46.1342108,5.60340843 45.2277216,5.56407664 C45.1266999,5.45705758 45.1266999,5.08203351 45.2277216,4.97592914 C46.0683663,4.99422299 46.5554351,5.01160216 47.3951778,5.01160216 C48.2520581,5.01160216 48.7571665,4.99239361 49.5797716,4.97592914 C49.6798913,5.08111881 49.6798913,5.4543135 49.5797716,5.56407664 C48.4026886,5.61804352 48.1176632,5.70493934 48.1176632,7.18399769 L48.1176632,14.318602 C48.1185652,15.7958309 48.4053946,15.8854708 49.5797716,15.9376083 Z M61.665392,4.97958791 C61.7646097,5.0829482 61.7646097,5.45797227 61.665392,5.56590603 C60.488309,5.6207876 60.2032836,5.70768342 60.2032836,7.18582707 L60.2032836,14.321346 C60.2032836,15.798575 60.488309,15.8873002 61.665392,15.9412671 C61.7646097,16.0482862 61.7646097,16.4214808 61.665392,16.5294146 C60.8418849,16.510206 60.3367765,16.4937416 59.4807982,16.4937416 C58.6401535,16.4937416 58.1521827,16.5129501 57.31244,16.5294146 C57.2123203,16.4233102 57.2123203,16.0492008 57.31244,15.9412671 C58.4895229,15.8873002 58.7745484,15.8004044 58.7745484,14.321346 L58.7745484,7.04496438 C58.7745484,5.94184479 58.4047369,5.72963605 58.0015522,5.72963605 L54.6912882,5.72963605 C54.2881035,5.72963605 53.9191939,5.94001541 53.9191939,7.04496438 L53.9191939,14.321346 C53.9191939,15.798575 54.2042194,15.8873002 55.3804004,15.9412671 C55.481422,16.0482862 55.481422,16.4214808 55.3804004,16.5294146 C54.5397557,16.510206 54.0535888,16.4937416 53.2138461,16.4937416 C52.3569658,16.4937416 51.8518574,16.5129501 51.0292523,16.5294146 C50.9291326,16.4233102 50.9291326,16.0492008 51.0292523,15.9412671 C52.2063353,15.8873002 52.4913607,15.8004044 52.4913607,14.321346 L52.4913607,7.18582707 C52.4913607,5.7104275 52.2045313,5.61987291 51.0292523,5.56590603 C50.9291326,5.45888696 50.9291326,5.08569228 51.0292523,4.97958791 C51.869897,4.99788176 52.8106614,5.01343154 53.1967085,5.01343154 L59.4979358,5.01343154 C59.9516314,5.01343154 60.8247473,4.99605238 61.665392,4.97958791 Z M68.976836,8.85422684 C69.0769557,8.74995186 69.4296296,8.74995186 69.5297493,8.85422684 C69.5126117,9.39023686 69.4981801,9.78081071 69.4981801,10.3863374 C69.4981801,10.9909494 69.5144157,11.328471 69.5297493,11.9522915 C69.4296296,12.0574812 69.0769557,12.0574812 68.976836,11.9522915 C68.9254232,11.1510206 68.8758144,10.7412382 67.4470792,10.7412382 L65.9191263,10.7412382 L65.9191263,15.0293183 C65.9191263,15.5095321 66.1554449,15.7958309 66.5234524,15.7958309 L68.8090679,15.7958309 C70.0862706,15.7958309 70.6725571,14.7457635 71.0080934,13.4642788 C71.2281763,13.4066532 71.4239058,13.4450703 71.5979878,13.5539187 C71.4644949,14.461294 71.2101367,15.634845 70.9765241,16.5248411 C70.9765241,16.5248411 69.632575,16.4891681 68.8234996,16.4891681 L65.2119745,16.4891681 C65.2119745,16.4891681 63.8499858,16.5083767 63.0273807,16.5248411 C62.927261,16.4187368 62.927261,16.0446274 63.0273807,15.9366936 C64.2026597,15.8827267 64.4885871,15.7958309 64.4885871,14.3167726 L64.4885871,7.18125361 C64.4885871,5.70493934 64.2026597,5.61529944 63.0273807,5.56133256 C62.927261,5.45522819 62.927261,5.08203351 63.0273807,4.97592914 C63.8680254,4.99422299 65.1939349,5.00977277 65.1939349,5.00977277 L69.4783365,5.00977277 C69.8815213,5.00977277 70.0177201,4.99147891 70.3018436,4.93934142 C70.3541584,4.93934142 70.3676881,4.95854997 70.3676881,4.99422299 C70.4028653,5.13508569 70.6527135,6.84281725 70.7356956,7.57182746 C70.5715354,7.6559792 70.3920415,7.69348161 70.1836843,7.66329675 C69.8147748,6.43486424 69.545083,5.7232332 68.2859199,5.7232332 L66.5216484,5.7232332 C66.1184637,5.7232332 65.9173223,6.07996341 65.9173223,6.50529559 L65.9173223,10.0643655 L67.4452752,10.0643655 C68.8758144,10.0661949 68.9263252,9.83569228 68.976836,8.85422684 Z M75.247396,11.1345561 C75.6172075,9.10576738 75.8183489,7.2727229 75.8183489,6.15405353 C75.8183489,5.78085885 75.6686203,5.59609089 75.2302584,5.54944156 L74.726052,5.49455998 C74.6412659,5.49455998 74.592559,5.45888696 74.592559,5.38754092 L74.592559,5.01526093 L74.6259323,4.98141729 C74.6259323,4.98141729 75.8021133,5.01526093 76.3063197,5.01526093 L80.690841,5.01526093 C81.1968513,5.01526093 82.5218589,4.98141729 82.5218589,4.98141729 L82.5561341,5.01526093 L82.5561341,5.35369728 C82.5561341,5.45888696 82.4875837,5.48907183 82.4226412,5.49455998 L81.9346704,5.53023301 C81.3934828,5.5695648 81.3141086,5.79640863 81.3141086,6.43760832 L81.3141086,15.1024937 C81.3141086,15.7610726 81.691136,15.9568169 81.9851812,16.0098691 C82.3477769,16.0757269 82.4785639,16.135182 82.4884857,16.3492201 L82.6075469,18.9807915 C82.1547533,18.9807915 82.1547533,19 82.1547533,19 C81.951808,18.0038995 81.3465799,16.4919122 80.0026308,16.4919122 L75.1310407,16.4919122 C73.7347768,16.4919122 73.2991208,18.0752455 73.114215,19 L72.6596174,18.9807915 L72.7786787,16.3492201 C72.7886005,16.135182 72.9653884,16.0363951 73.1322546,16.0098691 C73.4596731,15.9549875 73.7275609,15.9138263 73.9728993,15.6531388 C74.4085553,15.1893896 74.7107183,13.910649 75.247396,11.1345561 Z M77.1956713,5.72414789 C76.7428777,5.72414789 76.5751095,5.97294435 76.5390303,6.41839977 C76.4046354,8.21577123 76.1367476,10.0652802 75.9347042,11.2754188 C75.5657947,13.3572598 75.1454723,15.1189582 75.1454723,15.4921529 C75.1454723,15.7034469 75.3646533,15.7949162 75.5991679,15.7949162 L79.2801454,15.7949162 C79.6824281,15.7949162 79.8844715,15.73912 79.8844715,15.0823705 L79.8844715,6.41565569 C79.8844715,5.8640959 79.7843518,5.72414789 79.2639097,5.72414789 L77.1956713,5.72414789 L77.1956713,5.72414789 Z M95.4147507,15.9376083 C95.5139685,16.0418833 95.5139685,16.4169074 95.4147507,16.5248411 C94.5741061,16.5056326 94.0861353,16.4891681 93.2463926,16.4891681 C92.3904142,16.4891681 91.8853058,16.5083767 91.0617987,16.5248411 C90.961679,16.4187368 90.961679,16.0437127 91.0617987,15.9376083 C92.2388817,15.8818121 92.5239071,15.7958309 92.5239071,14.3176873 L92.5239071,7.98343925 C92.39763,8.0282592 92.312844,8.10966686 92.2316659,8.21485654 L87.6405913,14.2637204 C87.4439598,14.529896 87.2761917,14.6725881 87.1616403,15.0942615 C87.2797996,15.8305893 87.655023,15.8946178 88.5750419,15.9376083 C88.6760635,16.042798 88.6760635,16.4169074 88.5750419,16.5248411 C87.7343972,16.5056326 87.2473284,16.4891681 86.4075856,16.4891681 C85.5516073,16.4891681 85.0464989,16.5083767 84.2229918,16.5248411 C84.1228721,16.4187368 84.1228721,16.0455421 84.2229918,15.9376083 C85.4000748,15.8827267 85.6851002,15.7958309 85.6851002,14.3176873 L85.6851002,7.1821683 C85.6851002,5.70676873 85.4000748,5.61529944 84.2229918,5.56224726 C84.1228721,5.45705758 84.1228721,5.08203351 84.2229918,4.97684383 C85.0636365,4.99422299 85.5516073,5.01068746 86.39135,5.01068746 C87.2473284,5.01068746 87.7515348,4.99147891 88.5750419,4.97684383 C88.6760635,5.08111881 88.6760635,5.4543135 88.5750419,5.56224726 C87.3979589,5.61804352 87.1138354,5.70585403 87.1138354,7.1821683 L87.1138354,13.5164163 C87.1914056,13.5109282 87.2870154,13.4505584 87.4105866,13.3206721 L92.0287205,7.23613518 C92.2181362,6.98459465 92.3732766,6.66079338 92.4706904,6.37357982 C92.3453153,5.66835163 91.9682879,5.60340843 91.0608968,5.56407664 C90.9607771,5.45705758 90.9607771,5.08203351 91.0608968,4.97592914 C91.9015414,4.99422299 92.3877083,5.01160216 93.227451,5.01160216 C94.0834293,5.01160216 94.5885377,4.99239361 95.4129468,4.97592914 C95.5121645,5.08111881 95.5121645,5.4543135 95.4129468,5.56407664 C94.2367658,5.61804352 93.9499364,5.70493934 93.9499364,7.18399769 L93.9499364,14.318602 C93.9517404,15.7958309 94.2385698,15.8854708 95.4147507,15.9376083 Z M101.632996,12.4855575 C101.632996,14.2655498 101.095416,15.4445889 100.289047,16.0629212 C99.7442513,16.4754477 99.191338,16.6181398 98.7367404,16.6181398 C98.3037904,16.6181398 96.8434859,16.4086751 96.8434859,15.5287406 C96.8434859,15.1372521 97.2457687,14.890285 97.4820873,14.890285 C98.0016273,14.890285 98.1919449,15.1363374 98.3561052,15.3695841 C98.4778724,15.5470345 98.5906198,15.9019353 98.8260364,15.9019353 C99.3789497,15.9019353 100.203359,15.7427787 100.203359,12.8779607 L100.203359,7.18399769 C100.203359,5.70676873 99.9183333,5.61621413 98.5725802,5.56407664 C98.4733625,5.45705758 98.4733625,5.08203351 98.5725802,4.97592914 C99.4141269,4.99422299 100.001315,5.01160216 100.909609,5.01160216 C101.69884,5.01160216 102.102025,4.99239361 102.92463,4.97592914 C103.02475,5.08111881 103.02475,5.4543135 102.92463,5.56407664 C101.917119,5.61804352 101.631192,5.70493934 101.631192,7.18399769 L101.631192,12.4855575 L101.632996,12.4855575 L101.632996,12.4855575 Z M108.49796,15.7107645 C108.645885,15.8626035 108.645885,16.3876372 108.49796,16.5394762 C107.583353,16.5129501 106.347642,16.4873387 105.334719,16.4873387 C104.371405,16.4873387 104.048496,16.5120354 103.135693,16.5394762 C102.987769,16.3876372 102.987769,15.8626035 103.135693,15.7107645 C104.209049,15.6357597 104.954084,15.4802619 105.605313,13.9335163 L111.098366,0.894569613 C111.380686,0.223185057 111.568298,0 111.931795,0 C112.279057,0 112.417962,0.268005007 112.59926,0.750962835 L117.662972,14.3350664 C118.120275,15.622954 118.929351,15.622954 119.889057,15.7107645 C120.036981,15.8626035 120.036981,16.3876372 119.889057,16.5394762 C118.973548,16.5129501 118.083294,16.4873387 117.072175,16.4873387 C116.108861,16.4873387 114.748677,16.5120354 113.835874,16.5394762 C113.686145,16.3876372 113.686145,15.8626035 113.835874,15.7107645 C115.011153,15.6247834 116.031291,15.7171673 115.662382,14.6835644 L114.154272,10.4494512 L109.015696,10.4494512 C108.423998,10.4494512 108.274269,10.5473233 108.152502,10.8747834 L106.793219,14.5088581 C106.407172,15.5388022 107.568922,15.646736 108.49796,15.7107645 Z M113.762813,9.3975544 L111.365352,2.70749085 L111.314842,2.70749085 L108.838908,9.0646062 C108.736985,9.33535529 108.912871,9.3975544 109.461274,9.3975544 L113.762813,9.3975544 Z" id="mk-wordmark" fill="#000000" fill-rule="nonzero"></path>
    </g>
</svg>

<svg xmlns="http://www.w3.org/2000/svg" width="120" height="19"><path fill="#000" fill-rule="nonzero" d="M6.388.275c4.596 0 5.312 2.181 5.312 3.86 0 1.36-1.108 2.647-2.348 3.283v.05c2.15.628 3.807 2.005 3.807 4.41 0 2.153-1.31 4.662-6.227 4.662-2.199 0-2.545-.05-3.608-.05-1.259 0-2.002.023-3.212.05-.15-.15-.15-.676 0-.826 1.729-.075 2.149-.2 2.149-2.28V3.385c0-2.079-.42-2.204-2.15-2.28-.148-.15-.148-.674 0-.826C1.348.304 2.064.33 3.3.33 4.362.327 5.523.275 6.388.275ZM4.362 7.318H6.19c2.051 0 3.51-.751 3.51-2.879 0-2.557-1.804-3.308-3.187-3.308-2.15 0-2.15.25-2.15 1.078l-.001 5.11Zm0 6.714c0 .827.32 1.68 2.05 1.68 3.756 0 4.449-1.528 4.449-3.357 0-2.255-1.41-4.186-4.794-4.186H4.362v5.863Zm21.571 1.906c.1.104.1.479 0 .587-.84-.02-1.327-.036-2.167-.036-.857 0-1.361.02-2.185.036-.1-.106-.1-.481 0-.587 1.177-.056 1.463-.142 1.463-1.62V7.983a.636.636 0 0 0-.294.232l-4.589 6.049c-.197.266-.364.409-.48.83.118.737.494.8 1.414.844.1.105.1.479 0 .587-.841-.02-1.329-.036-2.169-.036-.857 0-1.36.02-2.184.036-.101-.106-.101-.48 0-.587 1.176-.055 1.462-.142 1.462-1.62V7.182c0-1.475-.286-1.567-1.462-1.62-.101-.105-.101-.48 0-.585.84.017 1.327.034 2.166.034.858 0 1.362-.02 2.185-.034.1.104.1.477 0 .585-1.176.056-1.462.144-1.462 1.62v6.334c.077-.005.174-.065.297-.195l4.618-6.085c.19-.251.347-.575.443-.862-.125-.706-.503-.77-1.41-.81-.1-.107-.1-.482 0-.588.841.018 1.328.036 2.168.036.857 0 1.362-.02 2.185-.036.1.105.1.478 0 .588-1.177.054-1.462.14-1.462 1.62v7.135c.001 1.477.286 1.566 1.463 1.619Zm1.297.214c0-.09.05-.142.117-.142l.454-.034c.705-.058.908-.25.908-.747v-8.95c0-.535-.25-.694-.908-.748l-.437-.034a.137.137 0 0 1-.133-.141v-.339l.033-.034c.84.019 1.345.034 2.185.034.84 0 1.328-.018 2.153-.034l.033.034v.339c0 .09-.052.141-.135.141l-.436.034c-.672.058-.924.25-.924.747v3.7c.605 0 1.36-.017 1.764-.266.992-.569 1.226-1.708 1.377-2.704.17-1.102.64-2.1 1.966-2.1.891 0 1.193.515 1.193.927 0 .515-.386.71-.738.71a.863.863 0 0 1-.622-.267c-.184-.195-.32-.286-.537-.286-.506 0-.622.59-.706 1.104-.185 1.104-.538 2.634-1.815 3.132v.09c1.159 0 1.815.764 2.27 2.011.874 2.4 1.73 3.61 2.317 3.663l.268.02c.085 0 .135.055.135.14v.339l-.018.036-1.328-.02c-1.31-.019-1.915-1.46-2.638-3.415-.658-1.78-.974-2.367-2.89-2.367v4.503c0 .532.251.691.924.747l.437.034c.066 0 .133.055.133.14v.34l-.033.035c-.807-.036-1.295-.036-2.135-.036-.839 0-1.377 0-2.201.036l-.034-.036v-.336Zm22.35-.214c.1.104.1.479 0 .587-.84-.02-1.327-.036-2.167-.036-.857 0-1.362.02-2.184.036-.1-.106-.1-.481 0-.587 1.177-.056 1.462-.142 1.462-1.62V7.983a.638.638 0 0 0-.294.232l-4.59 6.049c-.196.266-.364.409-.48.83.12.737.495.8 1.414.844.1.105.1.479 0 .587-.839-.02-1.328-.036-2.167-.036-.857 0-1.362.02-2.184.036-.101-.106-.101-.48 0-.587 1.176-.055 1.461-.142 1.461-1.62V7.182c0-1.475-.285-1.567-1.461-1.62-.101-.105-.101-.48 0-.585.839.017 1.327.034 2.166.034.857 0 1.362-.02 2.185-.034.1.104.1.477 0 .585-1.177.056-1.462.144-1.462 1.62v6.334c.077-.005.175-.065.298-.195l4.617-6.085c.19-.251.347-.575.444-.862-.126-.706-.504-.77-1.41-.81-.101-.107-.101-.482 0-.588.84.018 1.327.036 2.167.036.857 0 1.362-.02 2.185-.036.1.105.1.478 0 .588-1.177.054-1.462.14-1.462 1.62v7.135c0 1.477.287 1.566 1.462 1.619ZM61.665 4.98c.1.103.1.478 0 .586-1.177.055-1.462.142-1.462 1.62v7.135c0 1.478.285 1.566 1.462 1.62.1.107.1.48 0 .588-.823-.019-1.328-.035-2.184-.035-.84 0-1.329.019-2.169.035-.1-.106-.1-.48 0-.588 1.178-.054 1.463-.14 1.463-1.62V7.045c0-1.103-.37-1.315-.773-1.315h-3.31c-.404 0-.773.21-.773 1.315v7.276c0 1.478.285 1.566 1.461 1.62.101.107.101.48 0 .588-.84-.019-1.326-.035-2.166-.035-.857 0-1.362.019-2.185.035-.1-.106-.1-.48 0-.588 1.177-.054 1.462-.14 1.462-1.62V7.186c0-1.476-.286-1.566-1.462-1.62-.1-.107-.1-.48 0-.586.84.018 1.782.033 2.168.033h6.3c.455 0 1.328-.017 2.168-.033Zm7.312 3.874c.1-.104.453-.104.553 0-.017.536-.032.927-.032 1.532s.016.942.032 1.566c-.1.105-.453.105-.553 0-.052-.801-.101-1.21-1.53-1.21H65.92v4.287c0 .48.236.767.604.767h2.286c1.277 0 1.864-1.05 2.2-2.332a.724.724 0 0 1 .589.09c-.134.907-.388 2.08-.621 2.97 0 0-1.344-.035-2.154-.035h-3.611s-1.362.02-2.185.036c-.1-.106-.1-.48 0-.588 1.176-.054 1.462-.141 1.462-1.62V7.18c0-1.476-.286-1.566-1.462-1.62-.1-.106-.1-.479 0-.585.841.018 2.167.034 2.167.034h4.284c.404 0 .54-.019.824-.07.052 0 .066.019.066.054.035.141.285 1.849.368 2.578a.891.891 0 0 1-.552.091c-.37-1.228-.639-1.94-1.898-1.94h-1.764c-.404 0-.605.357-.605.782v3.56h1.528c1.43.001 1.481-.23 1.532-1.21Zm6.27 2.28c.37-2.028.571-3.861.571-4.98 0-.373-.15-.558-.588-.605l-.504-.054c-.085 0-.133-.036-.133-.107v-.373l.033-.034s1.176.034 1.68.034h4.385c.506 0 1.83-.034 1.83-.034l.035.034v.339c0 .105-.068.135-.133.14l-.488.036c-.542.04-.62.266-.62.908v8.664c0 .66.376.855.67.908.363.066.494.125.503.34l.12 2.63c-.453 0-.453.02-.453.02-.203-.996-.808-2.508-2.152-2.508H75.13c-1.396 0-1.832 1.583-2.017 2.508l-.454-.02.119-2.63c.01-.215.186-.314.353-.34.328-.055.596-.096.84-.357.437-.464.739-1.742 1.275-4.518Zm1.949-5.41c-.453 0-.62.249-.657.694a56.77 56.77 0 0 1-.604 4.857c-.37 2.082-.79 3.844-.79 4.217 0 .211.22.303.454.303h3.681c.402 0 .604-.056.604-.713V6.416c0-.552-.1-.692-.62-.692h-2.068Zm18.219 10.214c.099.104.099.479 0 .587-.84-.02-1.329-.036-2.169-.036-.856 0-1.36.02-2.184.036-.1-.106-.1-.481 0-.587 1.177-.056 1.462-.142 1.462-1.62V7.983a.629.629 0 0 0-.292.232l-4.591 6.049c-.197.266-.365.409-.48.83.119.737.494.8 1.414.844.101.105.101.479 0 .587-.84-.02-1.328-.036-2.167-.036-.856 0-1.362.02-2.185.036-.1-.106-.1-.48 0-.587 1.177-.055 1.462-.142 1.462-1.62V7.182c0-1.475-.285-1.567-1.462-1.62-.1-.105-.1-.48 0-.585.84.017 1.329.034 2.168.034.856 0 1.36-.02 2.184-.034.101.104.101.477 0 .585-1.177.056-1.461.144-1.461 1.62v6.334c.077-.005.173-.065.297-.195l4.618-6.085c.19-.251.344-.575.442-.862-.126-.706-.503-.77-1.41-.81-.1-.107-.1-.482 0-.588.84.018 1.327.036 2.166.036.856 0 1.362-.02 2.186-.036.1.105.1.478 0 .588-1.176.054-1.463.14-1.463 1.62v7.135c.002 1.477.289 1.566 1.465 1.619Zm6.218-3.452c0 1.78-.538 2.959-1.344 3.577-.545.412-1.098.555-1.552.555-.433 0-1.894-.21-1.894-1.09 0-.39.403-.638.64-.638.519 0 .709.246.873.48.122.177.235.532.47.532.553 0 1.377-.16 1.377-3.024V7.184c0-1.477-.285-1.568-1.63-1.62-.1-.107-.1-.482 0-.588.841.018 1.428.036 2.337.036.789 0 1.192-.02 2.015-.036.1.105.1.478 0 .588-1.008.054-1.294.14-1.294 1.62v5.302h.002Zm6.865 3.225c.148.152.148.677 0 .828a118.49 118.49 0 0 0-3.163-.052c-.964 0-1.287.025-2.2.052-.147-.151-.147-.676 0-.828 1.074-.075 1.82-.23 2.47-1.777l5.493-13.04c.283-.67.47-.894.834-.894.347 0 .486.268.667.751l5.064 13.584c.457 1.288 1.266 1.288 2.226 1.376.148.152.148.677 0 .828a93.468 93.468 0 0 0-2.817-.052c-.963 0-2.323.025-3.236.052-.15-.151-.15-.676 0-.828 1.175-.086 2.195.006 1.826-1.027l-1.508-4.235h-5.138c-.592 0-.742.098-.863.426l-1.36 3.634c-.386 1.03.776 1.138 1.705 1.202Zm5.265-6.313-2.398-6.69h-.05l-2.476 6.357c-.102.27.074.333.622.333h4.302Z"/></svg>
